X:1
T:Dear Little Stranger
T:Charles Hutchinson Gabriel, 1900
T:Dear Little Stranger
T:Public Domain
T:Public Domain
C:Charles Hutchinson Gabriel, 1900
Z:Public Domain
%%score ( 1 2 ) ( 3 4 )
L:1/8
M:6/8
K:G
V:1 treble 
V:2 treble 
V:3 bass 
V:4 bass 
V:1
 DEF E2 D | DEF E2 D | DGB BAE | BAG FED | DEF E2 D | DEF E2 D | DGB dcA | [DB][B,G][CA] [B,G]3 |: %8
w: 1.~Low in a man- ger,|tle Strang- er, Je- sus,|der- ful Sav- ior, was born.|none to re- ceive Him, none|lieve Him, None but the|were watch- ing that morn.|tle Strang- er, slept in a|y pil- low un-|
w: 2.~An- gels de- scend- ing,|Him bend- ing, Chant- ed|der and si- lent re- frain;|won- der- ful sto- ry told|glo- ry, Un- to the|on Beth- le- hem’s plain.|||
w: 3.~Dear lit- tle Strang- er,|a mang- er, Mak- er|arch, and Sav- ior of all;|love You for- ev- er! Grieve|nev- er! You did for|Your bed in a stall.|the poor He slum- bered se-|~ ~ ~ ~|
"^Refrain" [B,D][B,G]>[CA] [DB]2 [Gd] | [Gd][DB]>[DG] [DF]2 [CE] | D[DF]>[FA] [Ac]2 [ce] | %11
w: der His head; * *|||
w: |||
w: ~ ~ ~ dear lit-|tle Babe in His bed.||
 [ce][Bd]>[Ac] [GB]3 :| [B,D][DG][Dc] [DB][B,D][CA] | [B,G]3- [B,G]2 z |] %14
w: |||
w: |||
w: |||
V:2
 B,3 C3 | B,3 B,3 | D3 E3 | ^C3 =C3 | B,3 C3 | B,3 C3 | D2 =F E2 E | x6 |: x6 | x6 | C x5 | x6 :| %12
w: dear lit-|the won-|There was|to be-|an- gels|Dear lit-|man- ger, No down-||||||
w: o- ver|a ten-|Then a|of His|shep- herds||||||||
w: born in|and Mon-|I will|You? No,|me make|But with|cure, The ~ ~||||||
 x6 | x6 |] %14
w: ||
w: ||
w: ||
V:3
 [G,,D,G,]3 [A,,D,F,]3 | [G,,D,G,]3 [G,,D,F,]3 | [B,,G,]3 [C,G,]3 | G,2 G, A,G,F, | %4
 [G,,D,G,]3 [A,,D,F,]3 | [G,,D,G,]3 [A,,D,F,]3 | [B,,G,]2 [G,,G,] [C,G,]3 | G,2 D, [G,,D,]3 |: %8
 [G,,G,][G,,D,]>[G,,G,] G,2 [G,B,] | [G,B,]G,>[B,,G,] [C,G,]2 [C,G,] | %10
 [D,F,][D,A,]>[D,D] [D,D]2 [D,D] | [G,D][G,D]>[G,D] [G,D]3 :| %12
 [D,G,][D,B,][D,A,] [D,G,][D,G,][D,F,] | [G,,G,]3- [G,,G,]2 z |] %14
V:4
 x6 | x6 | x6 | A,,3 D,2 x | x6 | x6 | x6 | D,3 x3 |: x6 | x6 | x6 | x6 :| x6 | x6 |] %14

